X:1
T:Shine for Jesus Where You Are
T:Harry Dixon Loes, ca. 1915
T:Shine for Jesus Where You Are
T:Public Domain
T:Public Domain
C:Harry Dixon Loes, ca. 1915
Z:Public Domain
%%score ( 1 2 ) ( 3 4 )
L:1/8
M:4/4
K:D
V:1 treble 
V:2 treble 
V:3 bass 
V:4 bass 
V:1
 [DF][DE][DF][EG] [FA]2 [Fd]2 | [Gc]2 [GB]2 [FA]4 | [EG][EG][DF][EG] [Gc]2 [GB]2 | ([FA]4 [DF]4) | %4
w: 1.~Be a faith- ful wit- ness|for the Lord,|Shine for Je- sus where you|are; *|
w: 2.~Grace for ev- ’ry deed He|will pro- vide,|Shine for Je- sus where you|are; *|
w: 3.~In your home to- day let|kind- ness glow,|Shine for Je- sus where you|are; *|
 [DF][CE][DF][EG] [FA]2 [Fd]2 | [Gc]2 [A=c]2 [GB]2 [AB]2 | [^Ge]3 [Gd] [Gc]2 [EB]2 | %7
w: You can- not an i- dle|hour af- ford, Just|shine for Je- sus|
w: There are those in need on|ev- ’ry side, Just|shine for Je- sus|
w: Tell some- one of Christ and|heal sin’s woe, Just|shine for Je- sus|
 [EA]2 [DA]2 ([CA-]2 [GA]2) ||"^Refrain" (z2 FF [Fd])[Fd][Fc][FB] | [FA]2 [DF]2 [FA]4 | %10
w: where you are. *|* * * Shine for Je-|* where you|
w: where you are. *|||
w: where you are. *|||
 (z2 GG [Gc])[GB][FA][EG] | [DF]2 [DB]2 [DA]4 | [DF][CE][DF][EG] | [FA]2 [Fd][Ac] | %14
w: * * * are, Shine for|* sus where|you are; Some- one|lost in sin|
w: ||||
w: ||||
 [GB]2 [AB]2 [^Ge]2 [Bd]2 | (A2 AA c)ABc | [Fd]2 [Gd]2 [Fd]4 |] %17
w: you may guide to|glo- * * * ry, Shine for|where you are.|
w: |||
w: |||
V:2
 x8 | x8 | x8 | x8 | x8 | x8 | x8 | x8 || d4 x4 | x8 | c4 x4 | x8 | x4 | x4 | x8 | c4 G4 | x8 |] %17
w: ||||||||sus||Je-|||||Je- sus||
V:3
 [D,A,][D,A,][D,A,][D,A,] [D,D]2 [D,A,]2 | [A,,A,]2 [A,,C]2 [D,D]4 | %2
w: ~ ~ ~ ~ ~ ~|~ ~ ~|
 [A,,C][A,,B,][A,,A,][A,,A,] [A,,A,]2 [A,,C]2 | [D,D]2 [D,C][D,B,] [D,A,]4 | %4
w: ~ ~ ~ ~ ~ ~|~ ~ ~ ~|
 [D,A,][G,A,][F,A,][E,A,] [D,D]2 [D,A,]2 | [E,A,]2 [F,D]2 [G,D]2 [F,^D]2 | %6
w: ~ ~ ~ ~ ~ ~|~ ~ ~ ~|
 [E,E]3 [E,E] [E,E]2 [E,D]2 | [A,,C]2 [A,,B,]2 [A,,A,]2 [A,,C]2 || %8
w: ~ ~ ~ ~|~ ~ ~ ~|
 z2 [D,A,][D,A,] [D,A,][D,A,][D,A,][D,A,] | [D,D]2 [D,A,]2 [D,D]4 | %10
w: Bright- ly shine ~ ~ ~|~ ~ ~|
 z2 [A,E][A,E] [A,E][A,C][A,D]A, | [D,A,]2 [D,G,]2 [D,F,]4 | [D,A,][G,A,][F,A,][E,A,] | %13
w: Bright- ly shine ~ ~ ~|~ ~ ~|~ ~ ~ ~|
 [D,D]2 [D,A,][F,D] | [G,D]2 [F,^D]2 [E,E]2 [^G,E]2 | [A,E]2 [E,E][C,E] (ECDE) | %16
w: ~ ~ ~|~ ~ ~ Shine,|bright- ly shine * * * *|
 [D,D]2 [D,B,]2 [D,A,]4 |] %17
w: |
V:4
 x8 | x8 | x8 | x8 | x8 | x8 | x8 | x8 || x8 | x8 | x7 A, | x8 | x4 | x4 | x8 | x4 A,,4 | x8 |] %17
w: ||||||||||~|||||||

